images/preloader/logo.svg

<svg width="386" height="178" viewBox="0 0 386 178" fill="none" xmlns="http://www.w3.org/2000/svg">
<path d="M0 41.0868C0 18.3952 18.2745 0 40.8173 0H136.015C158.558 0 176.833 18.3952 176.833 41.0868V136.913C176.833 159.605 158.558 178 136.015 178H40.8173C18.2745 178 0 159.605 0 136.913V41.0868Z" fill="black"/>
<path d="M140.796 83.5536C138.949 71.4634 128.74 62.6816 116.532 62.6816C115.396 62.6816 114.23 62.7578 113.094 62.9103C111.625 63.1085 110.201 63.4286 108.838 63.8555C106.612 64.5568 105.082 66.6303 105.082 68.9782V77.3789C107.823 74.4211 111.716 72.5916 116.123 72.5916C120.228 72.5916 124.06 74.1619 126.892 77.0129C129.74 79.8792 131.3 83.767 131.3 87.9292C131.3 96.5128 124.62 103.252 116.123 103.267C112.049 103.267 108.247 101.681 105.43 98.8149C102.613 95.9487 101.053 92.0914 101.053 87.9444V52.4439C101.053 49.8925 98.9847 47.8242 96.4333 47.8242V47.8242C93.495 47.8242 91.1171 47.8242 91.1171 47.8242V83.5536C91.1171 83.5536 91.2451 87.551 91.6494 90.0728C92.2845 94.0339 92.7144 96.3976 94.4968 99.9391C96.3015 103.525 101.068 107.825 101.068 107.825C105.415 111.302 110.853 113.223 116.578 113.223C121.47 113.223 126.15 111.789 130.118 109.06C138.782 103.114 142.493 94.2868 140.842 83.5536H140.796Z" fill="#FF5100"/>
<path d="M36.4379 83.4772C38.2858 71.387 48.4943 62.6052 60.7021 62.6052C61.8381 62.6052 63.0043 62.6815 64.1403 62.8339C65.6095 63.0321 67.0332 63.3523 68.3964 63.7792C70.6228 64.4805 72.1526 66.554 72.1526 68.9019V77.3025C69.4111 74.3448 65.5186 72.5152 61.1111 72.5152C57.0065 72.5152 53.1744 74.0856 50.3421 76.9366C47.4946 79.8029 45.9346 83.6906 45.9346 87.8528C45.9346 96.4364 52.6141 103.175 61.1111 103.19C65.1854 103.19 68.9871 101.605 71.8042 98.7386C74.6214 95.8723 76.1814 92.015 76.1814 87.8681V63.5505H80.8011C83.7394 63.5505 86.1173 65.9441 86.1173 68.9019V129.17H81.4826C78.5442 129.17 76.1663 126.776 76.1663 123.819V107.749C71.8193 111.225 66.3819 113.146 60.6566 113.146C55.7644 113.146 51.0842 111.713 47.1159 108.984C38.4523 103.038 34.7416 94.2105 36.3925 83.4772H36.4379Z" fill="#FF5100"/>
<path d="M226.399 113.039C225.293 113.949 223.937 114.632 222.329 115.087C220.772 115.542 219.114 115.77 217.356 115.77C212.935 115.77 209.519 114.606 207.108 112.28C204.696 109.954 203.491 106.566 203.491 102.116V82.622H196.859V75.0367H203.491V65.7827H212.91V75.0367H223.686V82.622H212.91V101.889C212.91 103.861 213.387 105.378 214.342 106.44C215.296 107.451 216.678 107.957 218.486 107.957C220.596 107.957 222.355 107.4 223.761 106.288L226.399 113.039Z" fill="black"/>
<path d="M251.713 116.303C247.644 116.303 243.977 115.418 240.711 113.648C237.446 111.878 234.884 109.426 233.025 106.29C231.217 103.105 230.312 99.5142 230.312 95.5193C230.312 91.5244 231.217 87.9593 233.025 84.8241C234.884 81.6888 237.446 79.2363 240.711 77.4664C243.977 75.6965 247.644 74.8115 251.713 74.8115C255.833 74.8115 259.525 75.6965 262.791 77.4664C266.056 79.2363 268.593 81.6888 270.401 84.8241C272.26 87.9593 273.19 91.5244 273.19 95.5193C273.19 99.5142 272.26 103.105 270.401 106.29C268.593 109.426 266.056 111.878 262.791 113.648C259.525 115.418 255.833 116.303 251.713 116.303ZM251.713 108.187C255.18 108.187 258.043 107.024 260.304 104.697C262.564 102.371 263.695 99.3119 263.695 95.5193C263.695 91.7266 262.564 88.6673 260.304 86.3411C258.043 84.015 255.18 82.8519 251.713 82.8519C248.247 82.8519 245.384 84.015 243.123 86.3411C240.912 88.6673 239.807 91.7266 239.807 95.5193C239.807 99.3119 240.912 102.371 243.123 104.697C245.384 107.024 248.247 108.187 251.713 108.187Z" fill="black"/>
<path d="M302.407 116.303C298.338 116.303 294.67 115.418 291.405 113.648C288.139 111.878 285.577 109.426 283.719 106.29C281.91 103.105 281.006 99.5142 281.006 95.5193C281.006 91.5244 281.91 87.9593 283.719 84.8241C285.577 81.6888 288.139 79.2363 291.405 77.4664C294.67 75.6965 298.338 74.8115 302.407 74.8115C306.526 74.8115 310.219 75.6965 313.484 77.4664C316.749 79.2363 319.286 81.6888 321.095 84.8241C322.954 87.9593 323.883 91.5244 323.883 95.5193C323.883 99.5142 322.954 103.105 321.095 106.29C319.286 109.426 316.749 111.878 313.484 113.648C310.219 115.418 306.526 116.303 302.407 116.303ZM302.407 108.187C305.873 108.187 308.737 107.024 310.997 104.697C313.258 102.371 314.388 99.3119 314.388 95.5193C314.388 91.7266 313.258 88.6673 310.997 86.3411C308.737 84.015 305.873 82.8519 302.407 82.8519C298.94 82.8519 296.077 84.015 293.816 86.3411C291.606 88.6673 290.501 91.7266 290.501 95.5193C290.501 99.3119 291.606 102.371 293.816 104.697C296.077 107.024 298.94 108.187 302.407 108.187Z" fill="black"/>
<path d="M331.541 60.6233H340.96V116.906H331.541V60.6233Z" fill="black"/>
<path d="M364.983 116.303C361.718 116.303 358.528 115.873 355.413 115.013C352.299 114.154 349.812 113.066 347.953 111.752L351.57 104.546C353.379 105.759 355.539 106.745 358.051 107.504C360.613 108.212 363.125 108.566 365.586 108.566C371.213 108.566 374.026 107.074 374.026 104.091C374.026 102.675 373.298 101.689 371.841 101.132C370.434 100.576 368.148 100.045 364.983 99.5395C361.668 99.0338 358.955 98.4522 356.845 97.7948C354.785 97.1375 352.977 95.9997 351.419 94.3815C349.912 92.7127 349.159 90.4119 349.159 87.4789C349.159 83.6357 350.741 80.5763 353.906 78.3007C357.121 75.9746 361.442 74.8115 366.867 74.8115C369.63 74.8115 372.393 75.1402 375.156 75.7976C377.919 76.4044 380.18 77.2388 381.938 78.3007L378.321 85.5067C374.905 83.484 371.062 82.4726 366.792 82.4726C364.029 82.4726 361.919 82.9025 360.462 83.7621C359.055 84.5712 358.352 85.6584 358.352 87.0238C358.352 88.5408 359.106 89.6281 360.613 90.2854C362.17 90.8923 364.556 91.4738 367.772 92.0301C370.987 92.5357 373.624 93.1173 375.684 93.7747C377.744 94.432 379.502 95.5446 380.959 97.1122C382.466 98.6798 383.219 100.905 383.219 103.787C383.219 107.58 381.587 110.614 378.321 112.89C375.056 115.165 370.61 116.303 364.983 116.303Z" fill="black"/>
</svg>

<svg width="386" height="178" fill="none" xmlns="http://www.w3.org/2000/svg"><path d="M0 41.087C0 18.395 18.274 0 40.817 0h95.198c22.543 0 40.818 18.395 40.818 41.087v95.826c0 22.692-18.275 41.087-40.818 41.087H40.817C18.274 178 0 159.605 0 136.913V41.087z" fill="#000"/><path d="M140.796 83.554c-1.847-12.09-12.056-20.872-24.264-20.872a26.12 26.12 0 00-3.438.228 25.773 25.773 0 00-4.256.946 5.377 5.377 0 00-3.756 5.122v8.4c2.741-2.957 6.634-4.786 11.041-4.786 4.105 0 7.937 1.57 10.769 4.42 2.848 2.867 4.408 6.755 4.408 10.917 0 8.584-6.68 15.323-15.177 15.338-4.074 0-7.876-1.586-10.693-4.452-2.817-2.866-4.377-6.724-4.377-10.87V52.443a4.62 4.62 0 00-4.62-4.62h-5.316v35.73s.128 3.997.532 6.519c.635 3.96 1.065 6.325 2.848 9.866 1.805 3.586 6.571 7.886 6.571 7.886 4.347 3.477 9.785 5.398 15.51 5.398 4.892 0 9.572-1.434 13.54-4.163 8.664-5.946 12.375-14.773 10.724-25.506h-.046zm-104.358-.077c1.848-12.09 12.056-20.872 24.264-20.872a25.775 25.775 0 017.694 1.174 5.376 5.376 0 013.757 5.123v8.4c-2.742-2.957-6.634-4.787-11.042-4.787-4.104 0-7.937 1.57-10.769 4.422-2.847 2.866-4.407 6.754-4.407 10.916 0 8.583 6.68 15.322 15.176 15.337 4.074 0 7.876-1.585 10.693-4.451 2.817-2.867 4.377-6.724 4.377-10.87V63.55h4.62c2.938 0 5.316 2.394 5.316 5.352v60.268h-4.634c-2.939 0-5.317-2.394-5.317-5.351v-16.07c-4.347 3.476-9.784 5.397-15.51 5.397-4.892 0-9.572-1.433-13.54-4.162-8.664-5.946-12.374-14.773-10.724-25.507h.046z" fill="#FF5100"/><path d="M226.399 113.039c-1.106.91-2.462 1.593-4.07 2.048-1.557.455-3.215.683-4.973.683-4.421 0-7.837-1.164-10.248-3.49-2.412-2.326-3.617-5.714-3.617-10.164V82.622h-6.632v-7.585h6.632v-9.254h9.419v9.254h10.776v7.585H212.91v19.267c0 1.972.477 3.489 1.432 4.551.954 1.011 2.336 1.517 4.144 1.517 2.11 0 3.869-.557 5.275-1.669l2.638 6.751zm25.314 3.264c-4.069 0-7.736-.885-11.002-2.655-3.265-1.77-5.827-4.222-7.686-7.358-1.808-3.185-2.713-6.776-2.713-10.77 0-3.996.905-7.56 2.713-10.696 1.859-3.135 4.421-5.588 7.686-7.358 3.266-1.77 6.933-2.654 11.002-2.654 4.12 0 7.812.885 11.078 2.654 3.265 1.77 5.802 4.223 7.61 7.358 1.859 3.135 2.789 6.7 2.789 10.695s-.93 7.586-2.789 10.771c-1.808 3.136-4.345 5.588-7.61 7.358-3.266 1.77-6.958 2.655-11.078 2.655zm0-8.116c3.467 0 6.33-1.163 8.591-3.49 2.26-2.326 3.391-5.385 3.391-9.178 0-3.792-1.131-6.852-3.391-9.178-2.261-2.326-5.124-3.49-8.591-3.49-3.466 0-6.329 1.164-8.59 3.49-2.211 2.326-3.316 5.386-3.316 9.178 0 3.793 1.105 6.852 3.316 9.178 2.261 2.327 5.124 3.49 8.59 3.49zm50.694 8.116c-4.069 0-7.737-.885-11.002-2.655-3.266-1.77-5.828-4.222-7.686-7.358-1.809-3.185-2.713-6.776-2.713-10.77 0-3.996.904-7.56 2.713-10.696 1.858-3.135 4.42-5.588 7.686-7.358 3.265-1.77 6.933-2.654 11.002-2.654 4.119 0 7.812.885 11.077 2.654 3.265 1.77 5.802 4.223 7.611 7.358 1.859 3.135 2.788 6.7 2.788 10.695s-.929 7.586-2.788 10.771c-1.809 3.136-4.346 5.588-7.611 7.358-3.265 1.77-6.958 2.655-11.077 2.655zm0-8.116c3.466 0 6.33-1.163 8.59-3.49 2.261-2.326 3.391-5.385 3.391-9.178 0-3.792-1.13-6.852-3.391-9.178-2.26-2.326-5.124-3.49-8.59-3.49-3.467 0-6.33 1.164-8.591 3.49-2.21 2.326-3.315 5.386-3.315 9.178 0 3.793 1.105 6.852 3.315 9.178 2.261 2.327 5.124 3.49 8.591 3.49zm29.134-47.564h9.419v56.283h-9.419V60.623zm33.442 55.68c-3.265 0-6.455-.43-9.57-1.29-3.114-.859-5.601-1.947-7.46-3.261l3.617-7.206c1.809 1.213 3.969 2.199 6.481 2.958 2.562.708 5.074 1.062 7.535 1.062 5.627 0 8.44-1.492 8.44-4.475 0-1.416-.728-2.402-2.185-2.959-1.407-.556-3.693-1.087-6.858-1.593-3.315-.505-6.028-1.087-8.138-1.744-2.06-.657-3.868-1.795-5.426-3.413-1.507-1.67-2.26-3.97-2.26-6.903 0-3.843 1.582-6.903 4.747-9.178 3.215-2.326 7.536-3.49 12.961-3.49a35.7 35.7 0 018.289.987c2.763.606 5.024 1.44 6.782 2.503l-3.617 7.206c-3.416-2.023-7.259-3.034-11.529-3.034-2.763 0-4.873.43-6.33 1.29-1.407.808-2.11 1.895-2.11 3.26 0 1.518.754 2.605 2.261 3.262 1.557.607 3.943 1.189 7.159 1.745 3.215.506 5.852 1.087 7.912 1.745 2.06.657 3.818 1.77 5.275 3.337 1.507 1.568 2.26 3.793 2.26 6.675 0 3.793-1.632 6.827-4.898 9.103-3.265 2.275-7.711 3.413-13.338 3.413z" fill="#000"/></svg>
